X:105
T:High reel, The
R:Reel
O:Ireland
M:4/4
K:AMix
a2fa ecA2|cAeA fAeA|a2fa ecA2|Bcdc BG G/G/G|\
a2fa ecA2|cdef g2fg|
afge fdec|Bcdc BG G/G/G::\
c/B/A eA fAeA|c/B/A af ecA2|
c/B/A eA fAeA|Bcdc BG G/G/G|\
c/B/A eA|fAeA|cdef g2fg|\
afge fdec|Bcdc BG G/G/G:|
